www/assets/icons/night_shelter.svg

<svg width="24" height="24" viewBox="0 0 24 24" xmlns="http://www.w3.org/2000/svg" fill='currentColor'><path d="M12 3L4 9V21H20V9L12 3ZM9.75 12.5C10.44 12.5 11 13.06 11 13.75C11 14.44 10.44 15 9.75 15C9.06 15 8.5 14.44 8.5 13.75C8.5 13.06 9.06 12.5 9.75 12.5ZM17 18H16V16.5H8V18H7V11H8V15.5H11.5V12H15C16.1 12 17 12.9 17 14V18Z"/></svg>

<svg xmlns="http://www.w3.org/2000/svg" width="24" height="24" viewBox="0 0 24 24" fill='currentColor'><path d="M12 3 4 9v12h16V9zm-2.25 9.5a1.25 1.25 0 1 1 0 2.5 1.25 1.25 0 0 1 0-2.5M17 18h-1v-1.5H8V18H7v-7h1v4.5h3.5V12H15c1.1 0 2 .9 2 2z"/></svg>
